X: 1
T: Ridee
M: 3/4
L: 1/8
R: waltz
K: Edor
&quot;Em&quot;ef ge &quot;Am&quot;a2|ab &quot;C&quot;gf ed|ef gf &quot;D&quot;d2|fb &quot;Bm&quot;ag f2|
&quot;Em&quot;ef ge &quot;Am&quot;a2|ab &quot;C&quot;gf ed|ef gf &quot;D&quot;df|fa &quot;Bm&quot;g2e2:|
&quot;Em&quot;ed ef d2|&quot;Bm&quot;Bc de f2|&quot;Em&quot;ed ea &quot;D&quot;gf|ag fg e2|
&quot;Em&quot;ed ef d2|&quot;Bm&quot;Bc de f2|&quot;Em&quot;ed ea gf|&quot;D&quot;ag fg e2:|
